X: 15201
T: Gimboling Gyre, The
R: barndance
M: 4/4
K: Gmajor
|:^cd|edBG DGBg|fecA E2 ^cd|edcA E2 ^cd|edBG D2 ^cd|
eBGE DBdg|fecA f2 ^cd|edcA E=F^FB|G2 g2 G2:|
|:BG|E^DEF GFGE|DBdg b2 ag|fecA E=F^FB|GDGB g2 AG|
E2 EF G2 GA|B^ABd b2 =ag|fecA e=f^fb|g2 d2 G2:|

